X: 11
T: John Walsh's
C: John Walsh
Z: NfldWhistler
S: https://thesession.org/tunes/329#setting50116
R: polka
M: 2/4
L: 1/8
K: Gmaj
|: G>A BA | GE ED | B,D ED | B,D ED | G>A BA |
GE ED |1 B,D ED | GD ED :|2 B,D EF | GA Bd ||
|: ~g2 fg | ag ge | dB BA | GA Bd |
~g2 fg | ag e/f/g/e/ | dB AB |1 G2 G2 :|2 GD ED ||

%-------------------- TUNE SEPARATOR --------------------%

